assets/img/Just-leaf.svg

<?xml version="1.0" encoding="UTF-8"?>
<svg xmlns="http://www.w3.org/2000/svg" xmlns:xlink="http://www.w3.org/1999/xlink" width="1080pt" height="1080pt" viewBox="0 0 1080 1080" version="1.1">
<g id="surface8">
<path style="fill-rule:nonzero;fill:rgb(94.901961%,94.901961%,94.901961%);fill-opacity:1;stroke-width:5;stroke-linecap:butt;stroke-linejoin:miter;stroke:rgb(9.803922%,9.803922%,9.803922%);stroke-opacity:1;stroke-miterlimit:10;" d="M 1025.984375 539.25 C 1025.984375 807.710938 808.355469 1025.339844 539.894531 1025.339844 C 271.433594 1025.339844 53.804688 807.710938 53.804688 539.25 C 53.804688 270.789062 271.433594 53.15625 539.894531 53.15625 C 808.355469 53.15625 1025.984375 270.789062 1025.984375 539.25 Z M 1025.984375 539.25 "/>
<path style=" stroke:none;fill-rule:evenodd;fill:rgb(9.803922%,9.803922%,9.803922%);fill-opacity:1;" d="M 728.714844 701.472656 C 702.136719 700.035156 677.773438 696.296875 655.125 685.019531 C 653.261719 684.085938 651.3125 683 649.359375 684.335938 C 647.285156 685.753906 647.945312 687.960938 648.410156 689.960938 C 656.925781 726.421875 654.371094 762.082031 641.433594 797.222656 C 635.78125 812.570312 630.140625 827.992188 622.839844 842.527344 C 613.6875 860.753906 600.277344 875.472656 582.980469 887.269531 C 563.585938 900.507812 542.609375 909.066406 520.054688 913.789062 C 505.242188 916.894531 490.019531 918.140625 474.925781 919.746094 C 469.691406 920.300781 464.628906 921.523438 459.464844 922.269531 C 449.96875 923.640625 443.75 920.648438 441.816406 911.507812 C 437.925781 893.082031 423.648438 883.078125 411.023438 872.011719 C 389.335938 853.003906 363.171875 840.769531 338.714844 825.90625 C 315.050781 811.519531 290.324219 798.851562 267.8125 782.507812 C 259.21875 776.273438 248.503906 773.234375 240.066406 766.558594 C 229.734375 758.386719 217.570312 753.871094 205.851562 748.378906 C 195.601562 743.578125 194.90625 737.640625 202.640625 729.359375 C 221.863281 708.773438 241.496094 688.570312 259.867188 667.195312 C 263.832031 662.585938 268.652344 658.640625 273.402344 654.78125 C 281.9375 647.847656 289.378906 640.101562 295.183594 630.648438 C 297.757812 626.460938 301.457031 622.808594 305.179688 619.515625 C 319.378906 606.953125 324.324219 590.449219 324.886719 572.445312 C 325.75 544.925781 326.285156 517.242188 321.898438 490.03125 C 317.726562 464.140625 320.710938 437.851562 315.742188 412.101562 C 310.964844 387.304688 309.945312 362.019531 306.652344 337.023438 C 305.496094 328.261719 305.648438 319.328125 305.210938 310.472656 C 303.609375 278.144531 297.765625 246.386719 292.261719 214.585938 C 290.480469 204.296875 286.933594 194.324219 286.167969 183.839844 C 285.714844 177.621094 283.671875 170.390625 290.074219 166.277344 C 296.769531 161.980469 301.300781 168.070312 306.21875 171.515625 C 324.652344 184.421875 343.652344 196.421875 364.214844 205.707031 C 378.15625 212 390.539062 221.078125 404.210938 227.816406 C 422.996094 237.074219 442.8125 243.8125 462.683594 250.164062 C 483.898438 256.949219 505.003906 263.863281 525.886719 271.703125 C 545.695312 279.140625 564.464844 288.910156 584.539062 295.703125 C 598.773438 300.519531 612.054688 307.984375 623.109375 318.382812 C 646.269531 340.152344 671.492188 338.109375 697.519531 325.28125 C 724.613281 311.929688 751.085938 297.339844 778 283.675781 C 796.101562 274.488281 814.710938 265.660156 834.390625 259.792969 C 845.34375 256.527344 846.765625 257.832031 847.179688 269.441406 C 848.324219 301.792969 852.722656 333.585938 862.203125 364.710938 C 865.613281 375.910156 866.210938 387.945312 868.394531 399.542969 C 872.511719 421.414062 878.585938 442.839844 883.472656 464.527344 C 886.328125 477.199219 889.527344 489.625 894.332031 501.75 C 897.496094 509.71875 901.484375 516.933594 906.714844 523.574219 C 908.132812 525.378906 909.539062 526.902344 909.175781 529.578125 C 906.46875 549.523438 904.457031 569.578125 901.128906 589.414062 C 897.816406 609.125 889.355469 626.644531 874.488281 640.492188 C 862.191406 651.949219 851.59375 665.210938 837.628906 674.925781 C 834.621094 677.019531 831.730469 679.195312 828.320312 680.503906 C 802.191406 690.507812 776.089844 700.46875 747.285156 699.023438 C 740.519531 698.683594 734.027344 702.511719 728.714844 701.472656 Z M 728.714844 701.472656 "/>
<path style=" stroke:none;fill-rule:nonzero;fill:rgb(100%,100%,100%);fill-opacity:1;" d="M 647.355469 680.960938 L 675.808594 724.003906 "/>
<path style=" stroke:none;fill-rule:nonzero;fill:rgb(9.803922%,9.803922%,9.803922%);fill-opacity:1;" d="M 649.859375 679.308594 L 675.808594 724.003906 L 644.851562 682.613281 Z M 649.859375 679.308594 "/>
<path style=" stroke:none;fill-rule:nonzero;fill:rgb(100%,100%,100%);fill-opacity:1;" d="M 634.558594 668.519531 C 634.558594 668.519531 546.042969 547.960938 459.699219 425.84375 C 416.527344 364.785156 373.894531 303.335938 343.167969 256.410156 C 327.804688 232.953125 315.417969 213.117188 307.441406 198.828125 C 303.449219 191.691406 300.566406 185.933594 298.941406 181.859375 C 298.125 179.824219 297.632812 178.210938 297.402344 177.101562 C 297.296875 176.546875 297.226562 176.121094 297.222656 175.835938 C 297.203125 175.546875 297.195312 175.402344 297.195312 175.402344 C 297.195312 175.402344 297.207031 175.546875 297.226562 175.832031 C 297.234375 176.121094 297.308594 176.542969 297.417969 177.097656 C 297.660156 178.203125 298.167969 179.808594 299.003906 181.832031 C 300.667969 185.882812 303.605469 191.609375 307.664062 198.703125 C 315.78125 212.898438 328.359375 232.597656 343.949219 255.890625 C 375.132812 302.488281 418.367188 363.492188 462.136719 424.097656 C 549.683594 545.316406 639.378906 664.945312 639.378906 664.945312 Z M 634.558594 668.519531 "/>
<path style=" stroke:none;fill-rule:nonzero;fill:rgb(100%,100%,100%);fill-opacity:1;" d="M 636.03125 663.882812 C 636.03125 663.882812 636.054688 663.871094 636.105469 663.851562 L 636.125 663.84375 C 636.140625 663.839844 636.144531 663.835938 636.074219 663.855469 C 635.980469 663.882812 635.875 663.917969 635.761719 663.96875 C 635.539062 664.070312 635.285156 664.234375 635.074219 664.460938 C 635.035156 664.492188 635.175781 664.347656 635.382812 664.058594 C 635.796875 663.496094 636.457031 662.507812 637.296875 661.183594 C 638.976562 658.527344 641.386719 654.511719 644.398438 649.363281 C 650.417969 639.054688 658.839844 624.179688 668.78125 606.238281 C 688.664062 570.355469 714.609375 522.175781 739.765625 473.585938 C 752.34375 449.289062 764.730469 424.894531 776.105469 401.90625 C 787.488281 378.917969 797.855469 357.339844 806.492188 338.722656 C 815.136719 320.113281 822.042969 304.46875 826.726562 293.449219 C 829.074219 287.945312 830.871094 283.597656 832.085938 280.628906 C 833.296875 277.660156 833.941406 276.074219 833.941406 276.074219 C 833.941406 276.074219 833.316406 277.667969 832.148438 280.65625 C 830.976562 283.640625 829.234375 288.011719 826.964844 293.550781 C 822.429688 304.632812 815.738281 320.378906 807.34375 339.113281 C 798.960938 357.851562 788.882812 379.582031 777.8125 402.734375 C 766.746094 425.890625 754.691406 450.464844 742.4375 474.945312 C 717.9375 523.90625 692.640625 572.464844 673.226562 608.660156 C 663.519531 626.761719 655.289062 641.769531 649.375 652.222656 C 646.417969 657.449219 644.042969 661.53125 642.328125 664.320312 C 641.472656 665.71875 640.785156 666.785156 640.226562 667.566406 C 639.953125 667.957031 639.691406 668.292969 639.371094 668.636719 C 639.082031 668.933594 638.761719 669.160156 638.476562 669.316406 C 638.335938 669.394531 638.203125 669.457031 638.085938 669.503906 C 638.046875 669.523438 638.007812 669.535156 637.976562 669.550781 C 637.929688 669.570312 637.90625 669.585938 637.90625 669.585938 Z M 636.03125 663.882812 "/>
<path style=" stroke:none;fill-rule:nonzero;fill:rgb(100%,100%,100%);fill-opacity:1;" d="M 638.152344 669.492188 C 638.152344 669.492188 636.617188 670.148438 633.589844 671.316406 C 632.085938 671.925781 630.238281 672.59375 628.066406 673.382812 C 625.894531 674.171875 623.40625 675.105469 620.589844 676.027344 C 617.773438 676.96875 614.667969 678.054688 611.265625 679.148438 C 607.855469 680.210938 604.164062 681.355469 600.222656 682.582031 C 598.257812 683.214844 596.210938 683.796875 594.101562 684.390625 C 591.992188 684.988281 589.824219 685.605469 587.597656 686.238281 C 585.371094 686.871094 583.089844 687.519531 580.753906 688.183594 C 578.414062 688.839844 576 689.421875 573.546875 690.066406 C 568.636719 691.332031 563.515625 692.648438 558.21875 694.007812 C 552.894531 695.242188 547.390625 696.515625 541.726562 697.828125 C 538.894531 698.472656 536.035156 699.164062 533.121094 699.800781 C 530.203125 700.398438 527.25 701.007812 524.261719 701.621094 C 518.289062 702.847656 512.1875 704.101562 505.984375 705.375 C 499.75 706.496094 493.410156 707.636719 486.996094 708.789062 C 480.578125 709.933594 474.101562 711.171875 467.519531 712.113281 C 460.949219 713.125 454.324219 714.144531 447.675781 715.171875 C 444.351562 715.664062 441.03125 716.242188 437.683594 716.664062 C 434.339844 717.09375 430.988281 717.527344 427.640625 717.957031 C 414.246094 719.652344 400.875 721.542969 387.640625 722.769531 C 381.03125 723.453125 374.472656 724.132812 367.996094 724.804688 C 364.757812 725.128906 361.539062 725.5 358.339844 725.78125 C 355.136719 726.035156 351.957031 726.285156 348.804688 726.53125 C 336.1875 727.511719 324 728.523438 312.433594 729.359375 C 300.851562 729.988281 289.90625 730.578125 279.800781 731.128906 C 274.746094 731.398438 269.90625 731.660156 265.300781 731.910156 C 260.691406 732.050781 256.316406 732.183594 252.207031 732.308594 C 243.992188 732.550781 236.824219 732.761719 230.925781 732.9375 C 219.128906 733.289062 212.386719 733.488281 212.386719 733.488281 C 212.386719 733.488281 219.125 733.195312 230.917969 732.679688 C 236.8125 732.421875 243.972656 732.113281 252.183594 731.753906 C 256.289062 731.570312 260.660156 731.378906 265.265625 731.175781 C 269.863281 730.863281 274.699219 730.535156 279.746094 730.191406 C 289.835938 729.503906 300.769531 728.761719 312.332031 727.972656 C 323.875 726.976562 336.039062 725.796875 348.628906 724.644531 C 351.773438 724.351562 354.945312 724.058594 358.140625 723.761719 C 361.335938 723.433594 364.539062 723.019531 367.769531 722.652344 C 374.230469 721.890625 380.769531 721.121094 387.355469 720.347656 C 400.554688 718.9375 413.875 716.867188 427.222656 714.988281 C 430.554688 714.511719 433.890625 714.035156 437.222656 713.558594 C 440.554688 713.09375 443.863281 712.46875 447.175781 711.929688 C 453.789062 710.816406 460.382812 709.707031 466.921875 708.605469 C 473.472656 707.574219 479.917969 706.25 486.300781 705.023438 C 492.675781 703.78125 498.976562 702.558594 505.175781 701.355469 C 511.339844 700 517.402344 698.664062 523.335938 697.359375 C 526.300781 696.707031 529.234375 696.0625 532.136719 695.425781 C 535.027344 694.753906 537.863281 694.023438 540.675781 693.34375 C 546.292969 691.960938 551.753906 690.613281 557.035156 689.3125 C 562.285156 687.886719 567.355469 686.507812 572.222656 685.183594 C 574.652344 684.507812 577.046875 683.894531 579.359375 683.210938 C 581.671875 682.519531 583.929688 681.84375 586.132812 681.183594 C 588.332031 680.527344 590.476562 679.882812 592.5625 679.261719 C 594.648438 678.644531 596.671875 678.035156 598.609375 677.382812 C 602.5 676.113281 606.140625 674.925781 609.507812 673.828125 C 612.863281 672.695312 615.910156 671.578125 618.679688 670.613281 C 621.457031 669.660156 623.890625 668.710938 626.015625 667.902344 C 628.144531 667.097656 629.953125 666.414062 631.371094 665.816406 C 634.230469 664.667969 635.785156 663.976562 635.785156 663.976562 Z M 638.152344 669.492188 "/>
</g>
</svg>

<?xml version="1.0" encoding="utf-8"?>
<!-- Generator: Adobe Illustrator 16.0.0, SVG Export Plug-In . SVG Version: 6.00 Build 0)  -->
<!DOCTYPE svg PUBLIC "-//W3C//DTD SVG 1.1//EN" "http://www.w3.org/Graphics/SVG/1.1/DTD/svg11.dtd">
<svg version="1.1" id="Layer_1" xmlns="http://www.w3.org/2000/svg" xmlns:xlink="http://www.w3.org/1999/xlink" x="0px" y="0px"
	 width="1080px" height="1080px" viewBox="0 0 1080 1080" enable-background="new 0 0 1080 1080" xml:space="preserve">
<circle fill="#F2F2F2" stroke="#191919" stroke-width="5" stroke-miterlimit="10" cx="539.895" cy="539.249" r="486.091"/>
<g>
	<path fill-rule="evenodd" clip-rule="evenodd" fill="none" d="M369.421,541.167c0-61.688,0.015-123.377-0.06-185.065
		c-0.002-2.137,0.419-2.557,2.556-2.556c115.055,0.067,230.108,0.067,345.164,0c2.136-0.001,2.557,0.418,2.556,2.556
		c-0.066,123.377-0.066,246.753,0,370.13c0.001,2.136-0.419,2.558-2.556,2.556c-115.055-0.066-230.109-0.066-345.164,0
		c-2.136,0.002-2.559-0.417-2.557-2.556C369.436,664.544,369.421,602.855,369.421,541.167z M728.713,701.473
		c5.315,1.04,11.807-2.79,18.575-2.45c28.803,1.444,54.906-8.518,81.034-18.521c3.407-1.307,6.301-3.484,9.309-5.576
		c13.962-9.716,24.561-22.977,36.859-34.432c14.867-13.849,23.329-31.368,26.639-51.078c3.33-19.836,5.339-39.894,8.049-59.837
		c0.362-2.678-1.045-4.2-2.463-6.005c-5.228-6.642-9.219-13.856-12.381-21.824c-4.808-12.126-8.006-24.552-10.86-37.221
		c-4.889-21.691-10.962-43.116-15.079-64.985c-2.184-11.598-2.78-23.633-6.192-34.833c-9.479-31.124-13.878-62.919-15.024-95.269
		c-0.413-11.61-1.835-12.915-12.787-9.648c-19.68,5.867-38.29,14.694-56.392,23.883c-26.913,13.661-53.388,28.255-80.479,41.604
		c-26.027,12.827-51.252,14.873-74.41-6.9c-11.056-10.395-24.337-17.86-38.57-22.677c-20.076-6.792-38.847-16.563-58.652-24
		c-20.883-7.842-41.987-14.756-63.205-21.538c-19.872-6.353-39.686-13.092-58.473-22.35c-13.672-6.737-26.052-15.814-39.995-22.11
		c-20.563-9.285-39.561-21.283-57.998-34.192c-4.915-3.443-9.446-9.535-16.142-5.235c-6.402,4.111-4.36,11.343-3.906,17.561
		c0.765,10.485,4.312,20.456,6.093,30.747c5.502,31.798,11.347,63.558,12.947,95.887c0.438,8.854,0.288,17.788,1.443,26.55
		c3.293,24.997,4.312,50.282,9.092,75.077c4.965,25.752,1.982,52.039,6.155,77.93c4.385,27.212,3.85,54.895,2.989,82.415
		c-0.562,18.002-5.512,34.508-19.709,47.07c-3.722,3.291-7.422,6.944-9.995,11.131c-5.806,9.454-13.248,17.202-21.781,24.136
		c-4.749,3.859-9.57,7.802-13.535,12.414c-18.373,21.375-38.004,41.578-57.226,62.161c-7.735,8.283-7.042,14.219,3.21,19.021
		c11.72,5.491,23.884,10.007,34.214,18.178c8.439,6.677,19.152,9.715,27.746,15.95c22.514,16.346,47.237,29.013,70.904,43.4
		c24.454,14.864,50.621,27.098,72.309,46.106c12.623,11.064,26.9,21.069,30.793,39.493c1.933,9.143,8.152,12.135,17.648,10.763
		c5.165-0.746,10.226-1.969,15.461-2.524c15.091-1.605,30.317-2.851,45.129-5.954c22.555-4.726,43.531-13.282,62.924-26.52
		c17.297-11.8,30.707-26.519,39.859-44.743c7.301-14.534,12.943-29.956,18.594-45.304c12.937-35.143,15.493-70.804,6.978-107.265
		c-0.466-1.998-1.124-4.205,0.947-5.622c1.955-1.336,3.901-0.25,5.768,0.683C677.771,696.297,702.136,700.036,728.713,701.473z"/>
	<path fill-rule="evenodd" clip-rule="evenodd" fill="#191919" d="M728.713,701.473c-26.577-1.437-50.941-5.176-73.587-16.453
		c-1.866-0.933-3.813-2.019-5.768-0.683c-2.071,1.417-1.413,3.624-0.947,5.622c8.516,36.461,5.959,72.122-6.978,107.265
		c-5.65,15.348-11.293,30.77-18.594,45.304c-9.152,18.225-22.563,32.943-39.859,44.743c-19.393,13.237-40.369,21.794-62.924,26.52
		c-14.812,3.104-30.038,4.349-45.129,5.954c-5.235,0.556-10.297,1.778-15.461,2.524c-9.496,1.372-15.715-1.62-17.648-10.763
		c-3.893-18.424-18.17-28.429-30.793-39.493c-21.688-19.009-47.855-31.242-72.309-46.106c-23.667-14.388-48.39-27.055-70.904-43.4
		c-8.594-6.235-19.307-9.273-27.746-15.95c-10.331-8.171-22.495-12.687-34.214-18.178c-10.251-4.802-10.945-10.737-3.21-19.021
		c19.221-20.583,38.853-40.786,57.226-62.161c3.965-4.612,8.786-8.555,13.535-12.414c8.533-6.934,15.975-14.682,21.781-24.136
		c2.572-4.187,6.273-7.84,9.995-11.131c14.198-12.563,19.147-29.068,19.709-47.07c0.861-27.521,1.396-55.203-2.989-82.415
		c-4.173-25.892-1.19-52.178-6.155-77.93c-4.78-24.795-5.798-50.08-9.092-75.077c-1.155-8.762-1.004-17.696-1.443-26.55
		c-1.6-32.329-7.445-64.088-12.947-95.887c-1.781-10.291-5.328-20.262-6.093-30.747c-0.454-6.218-2.497-13.45,3.906-17.561
		c6.696-4.299,11.227,1.792,16.142,5.235c18.437,12.909,37.435,24.907,57.998,34.192c13.943,6.295,26.323,15.373,39.995,22.11
		c18.788,9.258,38.601,15.998,58.473,22.35c21.217,6.782,42.322,13.696,63.205,21.538c19.806,7.437,38.576,17.208,58.652,24
		c14.233,4.816,27.515,12.282,38.57,22.677c23.158,21.772,48.383,19.727,74.41,6.9c27.092-13.35,53.566-27.943,80.479-41.604
		c18.102-9.189,36.712-18.017,56.392-23.883c10.952-3.266,12.374-1.962,12.787,9.648c1.146,32.35,5.546,64.145,15.024,95.269
		c3.412,11.2,4.009,23.235,6.192,34.833c4.117,21.869,10.19,43.294,15.079,64.985c2.854,12.669,6.053,25.095,10.86,37.221
		c3.162,7.968,7.153,15.183,12.381,21.824c1.418,1.805,2.825,3.327,2.463,6.005c-2.71,19.943-4.719,40.001-8.049,59.837
		c-3.31,19.71-11.771,37.229-26.639,51.078c-12.299,11.455-22.897,24.716-36.859,34.432c-3.008,2.092-5.901,4.27-9.309,5.576
		c-26.128,10.004-52.231,19.966-81.034,18.521C740.52,698.683,734.028,702.513,728.713,701.473z"/>
</g>
<g>
	<line fill="#FFFFFF" x1="647.355" y1="680.961" x2="675.807" y2="724.003"/>
	<polygon fill="#191919" points="649.858,679.307 675.807,724.003 644.853,682.615 	"/>
</g>
<circle id="centerjoint" fill="none" cx="636.969" cy="666.734" r="3.338"/>
<g id="midstem">
	<path fill="#FFFFFF" d="M634.56,668.521c-0.001,0-88.518-120.561-174.862-242.678c-43.171-61.056-85.802-122.506-116.529-169.432
		c-15.363-23.459-27.75-43.293-35.729-57.581c-3.991-7.14-6.874-12.898-8.499-16.972c-0.817-2.034-1.308-3.646-1.539-4.755
		c-0.105-0.557-0.175-0.98-0.178-1.269c-0.019-0.287-0.029-0.433-0.029-0.433s0.011,0.146,0.033,0.432
		c0.005,0.289,0.08,0.711,0.19,1.266c0.242,1.104,0.749,2.71,1.585,4.733c1.664,4.052,4.601,9.776,8.661,16.871
		c8.116,14.196,20.695,33.895,36.286,57.189c31.184,46.597,74.418,107.601,118.188,168.206
		c87.545,121.217,177.24,240.848,177.24,240.848L634.56,668.521z"/>
</g>
<g id="rightStem">
	<path fill="#FFFFFF" d="M636.032,663.884c0,0,0.024-0.011,0.073-0.032l0.019-0.009c0.016-0.005,0.02-0.008-0.048,0.011
		c-0.096,0.027-0.201,0.064-0.313,0.115c-0.224,0.101-0.478,0.266-0.69,0.49c-0.038,0.034,0.104-0.113,0.31-0.401
		c0.412-0.56,1.075-1.55,1.912-2.875c1.682-2.654,4.093-6.671,7.103-11.821c6.021-10.309,14.442-25.182,24.382-43.123
		c19.884-35.883,45.831-84.062,70.984-132.655c12.58-24.294,24.966-48.69,36.343-71.679c11.381-22.986,21.748-44.566,30.385-63.181
		c8.646-18.61,15.55-34.257,20.235-45.274c2.347-5.506,4.146-9.853,5.36-12.82c1.208-2.971,1.853-4.555,1.853-4.555
		s-0.623,1.593-1.79,4.58c-1.175,2.984-2.914,7.355-5.186,12.895c-4.534,11.082-11.227,26.828-19.62,45.563
		c-8.385,18.739-18.46,40.47-29.53,63.622c-11.066,23.154-23.123,47.73-35.376,72.209c-24.5,48.961-49.799,97.52-69.213,133.716
		c-9.706,18.101-17.936,33.11-23.849,43.562c-2.959,5.228-5.334,9.311-7.047,12.099c-0.857,1.398-1.544,2.464-2.103,3.247
		c-0.274,0.388-0.534,0.724-0.854,1.07c-0.29,0.297-0.611,0.523-0.894,0.678c-0.142,0.078-0.273,0.14-0.394,0.189
		c-0.039,0.017-0.075,0.031-0.106,0.045c-0.048,0.022-0.072,0.034-0.072,0.034L636.032,663.884z"/>
</g>
<g id="leftStem">
	<path fill="#FFFFFF" d="M638.151,669.491c0,0-1.534,0.658-4.561,1.826c-1.505,0.609-3.352,1.276-5.522,2.066
		c-2.172,0.79-4.661,1.723-7.48,2.646c-2.815,0.938-5.919,2.026-9.321,3.12c-3.412,1.061-7.102,2.208-11.044,3.434
		c-1.966,0.632-4.014,1.215-6.123,1.808c-2.107,0.599-4.276,1.215-6.502,1.848c-2.225,0.633-4.507,1.281-6.844,1.945
		c-2.339,0.654-4.753,1.239-7.207,1.883c-4.912,1.264-10.03,2.58-15.327,3.942c-5.325,1.233-10.831,2.508-16.492,3.818
		c-2.832,0.646-5.694,1.339-8.605,1.972c-2.919,0.6-5.874,1.207-8.86,1.821c-5.973,1.227-12.074,2.48-18.28,3.756
		c-6.233,1.121-12.571,2.261-18.986,3.414c-6.417,1.144-12.896,2.38-19.479,3.323c-6.57,1.013-13.192,2.033-19.841,3.059
		c-3.327,0.491-6.647,1.072-9.994,1.492c-3.345,0.431-6.694,0.862-10.042,1.293c-13.396,1.696-26.767,3.586-40.002,4.812
		c-6.609,0.686-13.165,1.365-19.643,2.037c-3.239,0.324-6.455,0.694-9.655,0.976c-3.203,0.252-6.383,0.503-9.537,0.751
		c-12.616,0.978-24.805,1.992-36.371,2.828c-11.58,0.627-22.528,1.219-32.634,1.766c-5.052,0.273-9.894,0.535-14.499,0.784
		c-4.61,0.14-8.982,0.271-13.092,0.396c-8.217,0.244-15.382,0.456-21.282,0.631c-11.798,0.35-18.54,0.549-18.54,0.549
		s6.739-0.293,18.532-0.807c5.896-0.257,13.055-0.568,21.267-0.926c4.105-0.182,8.474-0.374,13.079-0.577
		c4.6-0.313,9.436-0.643,14.482-0.985c10.091-0.688,21.023-1.431,32.585-2.218c11.545-0.997,23.709-2.179,36.296-3.33
		c3.146-0.292,6.319-0.587,9.514-0.883c3.193-0.326,6.399-0.74,9.63-1.109c6.459-0.761,12.997-1.53,19.586-2.306
		c13.197-1.407,26.519-3.48,39.864-5.358c3.335-0.477,6.67-0.953,10.002-1.43c3.333-0.465,6.639-1.091,9.951-1.628
		c6.617-1.114,13.208-2.224,19.748-3.325c6.551-1.032,12.996-2.354,19.377-3.583c6.378-1.239,12.679-2.463,18.877-3.666
		c6.165-1.356,12.226-2.69,18.16-3.996c2.966-0.652,5.9-1.298,8.799-1.936c2.891-0.671,5.73-1.399,8.541-2.082
		c5.616-1.383,11.078-2.728,16.361-4.028c5.248-1.428,10.318-2.808,15.187-4.132c2.43-0.674,4.822-1.289,7.137-1.972
		c2.311-0.691,4.568-1.367,6.77-2.026c2.201-0.658,4.345-1.3,6.43-1.924c2.087-0.617,4.11-1.225,6.05-1.878
		c3.89-1.269,7.53-2.456,10.897-3.555c3.354-1.13,6.402-2.247,9.173-3.213c2.777-0.952,5.21-1.902,7.335-2.71
		c2.127-0.807,3.938-1.49,5.356-2.088c2.858-1.147,4.415-1.84,4.415-1.839L638.151,669.491z"/>
</g>
</svg>
